X:1330
T:Captain Kelly's Reel
R:Reel
N:Collected by F. O'Neill
B:O'Neill's 1330
Z:Transcribed by Trish O'Neil
M:C|
L:1/8
K:G
D2|GBAFG2ge|dBAc BE-~E2|GBAFG2ge|dBcA TBGG2|
G2ef 3ggg ge|dBAc BE-~E2|G2Bd agfge|dBABG2||
d2|g2bg agbg|egdg egdf|g2bg agbg|dgfag2d2|
g2bg agbg|egdg egdf|gafg efdf|3efg fa "D.C."gedB|]
